Papirus/24x24/mimetypes/rpm.svg

<svg xmlns="http://www.w3.org/2000/svg" width="24" height="24" version="1">
 <rect style="opacity:0.2" width="20" height="20" x="-22.5" y="-22" rx="1" ry="1" transform="matrix(0,-1,-1,0,0,0)"/>
 <rect fill="#d2d2d2" width="20" height="20" x="-22" y="-22" rx="1" ry="1" transform="matrix(0,-1,-1,0,0,0)"/>
 <path fill="#fff" opacity=".2" d="m3 2c-0.554 0-1 0.446-1 1v0.5c0-0.554 0.446-1 1-1h18c0.554 0 1 0.446 1 1v-0.5c0-0.554-0.446-1-1-1h-18z"/>
 <path fill="#b19a61" d="m9 8v8h2v-3h3v-5h-5zm2 2h1v1h-1v-1z"/>
 <path fill="#b19a61" d="m3 8v8h2v-1.9043l1 1.9045h2l-0.9475-3h0.9475v-5h-5zm2 2h1v1h-1v-1z"/>
 <path fill="#b19a61" d="m15 8v8h2v-3.5l0.95 1.5 1.05-1.5v3.5h2v-8h-2l-1.05 3-0.95-3z"/>
</svg>

<svg xmlns="http://www.w3.org/2000/svg" width="24" height="24" version="1">
 <rect style="opacity:0.2" width="20" height="20" x="-22.5" y="-22" rx="1" ry="1" transform="matrix(0,-1,-1,0,0,0)"/>
 <rect style="fill:#d2d2d2" width="20" height="20" x="-22" y="-22" rx="1" ry="1" transform="matrix(0,-1,-1,0,0,0)"/>
 <path style="opacity:0.2;fill:#ffffff" d="M 3,2 C 2.446,2 2,2.446 2,3 l 0,0.5 c 0,-0.554 0.446,-1 1,-1 l 18,0 c 0.554,0 1,0.446 1,1 L 22,3 C 22,2.446 21.554,2 21,2 Z"/>
 <path style="fill:#987d3b" d="M 3,8 3,16 5,16 5,14.095703 6,16 8,16 7.0527344,13 8,13 8,8 3,8 Z m 6,0 0,8 2,0 0,-3 3,0 0,-5 -5,0 z m 6,0 0,8 2,0 0,-3.5 L 17.949219,14 19,12.5 19,16 21,16 21,8 19,8 17.949219,11 17,8 15,8 Z m -10,2 1,0 0,1 -1,0 0,-1 z m 6,0 1,0 0,1 -1,0 0,-1 z"/>
</svg>
